Adwaita++-Light/panel/24/teamviewer-indicator-busy.svg

<svg height="24" width="24" xmlns="http://www.w3.org/2000/svg">
  <path d="m17.4 14.999999-1.4 1.400001 2.10198 2.1-2.10198 2.10198 1.4 1.39802 2.1-2.1 2.10198 2.1 1.39802-1.39802-2.1-2.10198 2.1-2.1-1.39802-1.400001-2.10198 2.10198zm-7.4-5.999999v2h4v-2l3 3-3 3v-2h-4v2l-3-3zm2-5c-4.4175389.0000002-7.9999998 3.5824611-8 8 .0000002 4.417539 3.5824611 8 8 8 1.691541-.0032 3.337169-.542328 4.702876-1.540408l-2.116646-2.114646 2.823527-2.831527 1.841692 1.841692c.488572-1.050598.745741-2.19647.748551-3.355111 0-4.4175393-3.582461-8.0000003-8-8z" fill="#444"/>
</svg>

<svg xmlns="http://www.w3.org/2000/svg" width="24" height="24" version="1.1">
 <defs>
  <style id="current-color-scheme" type="text/css">
   .ColorScheme-Text { color:#444444; } .ColorScheme-Highlight { color:#4285f4; }
  </style>
 </defs>
 <g>
  <path style="fill:currentColor" class="ColorScheme-Text" d="M 17.4,14.999999 16,16.4 18.10198,18.5 16,20.60198 17.4,22 19.5,19.9 21.60198,22 23,20.60198 20.9,18.5 23,16.4 21.60198,14.999999 19.5,17.101979 Z M 10,9 l 0,2 4,0 0,-2 3,3 -3,3 0,-2 -4,0 0,2 -3,-3 z m 2,-5 c -4.4175389,2e-7 -7.9999998,3.5824611 -8,8 2e-7,4.417539 3.5824611,8 8,8 1.691541,-0.0032 3.337169,-0.542328 4.702876,-1.540408 l -2.116646,-2.114646 2.823527,-2.831527 1.841692,1.841692 C 19.740021,14.304513 19.99719,13.158641 20,12 20,7.5824607 16.417539,3.9999997 12,4 Z"/>
 </g>
</svg>
